images/mTWTR.svg

<svg height="250" viewBox="0 0 250 250" width="250" xmlns="http://www.w3.org/2000/svg"><path d="m250 125c0 69.035156-55.964844 125-125 125s-125-55.964844-125-125 55.964844-125 125-125 125 55.964844 125 125zm0 0" fill="#fff" fill-rule="evenodd"/><path d="m205.355469 78.355469c-5.910157 2.6875-12.265625 4.503906-18.933594 5.320312 6.804687-4.183593 12.035156-10.808593 14.496094-18.703125-6.371094 3.875-13.429688 6.6875-20.9375 8.203125-6.015625-6.570312-14.585938-10.675781-24.070313-10.675781-18.207031 0-32.972656 15.136719-32.972656 33.808594 0 2.652344.292969 5.230468.855469 7.707031-27.402344-1.410156-51.699219-14.871094-67.960938-35.328125-2.839843 4.996094-4.464843 10.800781-4.464843 17 0 11.730469 5.820312 22.078125 14.667968 28.140625-5.40625-.175781-10.488281-1.695313-14.933594-4.230469-.003906.140625-.003906.285156-.003906.425782 0 16.382812 11.367188 30.046874 26.449219 33.152343-2.765625.773438-5.679687 1.1875-8.6875 1.1875-2.125 0-4.1875-.210937-6.203125-.605469 4.195312 13.429688 16.375 23.207032 30.800781 23.476563-11.285156 9.070313-25.5 14.476563-40.949219 14.476563-2.660156 0-5.285156-.160157-7.863281-.472657 14.589844 9.59375 31.921875 15.191407 50.542969 15.191407 60.648438 0 93.8125-51.519532 93.8125-96.199219 0-1.46875-.03125-2.925781-.09375-4.375 6.441406-4.765625 12.03125-10.722657 16.449219-17.5zm0 0" fill="#2aa9e0"/></svg>

<svg xmlns="http://www.w3.org/2000/svg" xmlns:xlink="http://www.w3.org/1999/xlink" width="250px" height="250px" viewBox="0 0 250 250" version="1.1">
<g id="surface1">
<path style=" stroke:none;fill-rule:evenodd;fill:rgb(100%,100%,100%);fill-opacity:1;" d="M 250 125 C 250 194.035156 194.035156 250 125 250 C 55.964844 250 0 194.035156 0 125 C 0 55.964844 55.964844 0 125 0 C 194.035156 0 250 55.964844 250 125 Z M 250 125 "/>
<path style=" stroke:none;fill-rule:nonzero;fill:rgb(16.470589%,66.274512%,87.843138%);fill-opacity:1;" d="M 205.355469 78.355469 C 199.445312 81.042969 193.089844 82.859375 186.421875 83.675781 C 193.226562 79.492188 198.457031 72.867188 200.917969 64.972656 C 194.546875 68.847656 187.488281 71.660156 179.980469 73.175781 C 173.964844 66.605469 165.394531 62.5 155.910156 62.5 C 137.703125 62.5 122.9375 77.636719 122.9375 96.308594 C 122.9375 98.960938 123.230469 101.539062 123.792969 104.015625 C 96.390625 102.605469 72.09375 89.144531 55.832031 68.6875 C 52.992188 73.683594 51.367188 79.488281 51.367188 85.6875 C 51.367188 97.417969 57.1875 107.765625 66.035156 113.828125 C 60.628906 113.652344 55.546875 112.132812 51.101562 109.597656 C 51.097656 109.738281 51.097656 109.882812 51.097656 110.023438 C 51.097656 126.40625 62.464844 140.070312 77.546875 143.175781 C 74.78125 143.949219 71.867188 144.363281 68.859375 144.363281 C 66.734375 144.363281 64.671875 144.152344 62.65625 143.757812 C 66.851562 157.1875 79.03125 166.964844 93.457031 167.234375 C 82.171875 176.304688 67.957031 181.710938 52.507812 181.710938 C 49.847656 181.710938 47.222656 181.550781 44.644531 181.238281 C 59.234375 190.832031 76.566406 196.429688 95.1875 196.429688 C 155.835938 196.429688 189 144.910156 189 100.230469 C 189 98.761719 188.96875 97.304688 188.90625 95.855469 C 195.347656 91.089844 200.9375 85.132812 205.355469 78.355469 Z M 205.355469 78.355469 "/>
</g>
</svg>
